vendor/shopware/storefront/Resources/app/storefront/dist/assets/icon/default/arrow-up.svg

<svg xmlns="http://www.w3.org/2000/svg" width="24" height="24" viewBox="0 0 24 24">
  <path fill="#758CA3" fill-rule="evenodd" d="M13,3.41421356 L13,23 C13,23.5522847 12.5522847,24 12,24 C11.4477153,24 11,23.5522847 11,23 L11,3.41421356 L6.70710678,7.70710678 C6.31658249,8.09763107 5.68341751,8.09763107 5.29289322,7.70710678 C4.90236893,7.31658249 4.90236893,6.68341751 5.29289322,6.29289322 L11.2928932,0.292893219 C11.6834175,-0.0976310729 12.3165825,-0.0976310729 12.7071068,0.292893219 L18.7071068,6.29289322 C19.0976311,6.68341751 19.0976311,7.31658249 18.7071068,7.70710678 C18.3165825,8.09763107 17.6834175,8.09763107 17.2928932,7.70710678 L13,3.41421356 Z"/>
</svg>

<svg xmlns="http://www.w3.org/2000/svg" width="24" height="24" viewBox="0 0 24 24"><path fill="#758CA3" fill-rule="evenodd" d="M13 3.4142V23c0 .5523-.4477 1-1 1s-1-.4477-1-1V3.4142l-4.2929 4.293c-.3905.3904-1.0237.3904-1.4142 0-.3905-.3906-.3905-1.0238 0-1.4143l6-6c.3905-.3905 1.0237-.3905 1.4142 0l6 6c.3905.3905.3905 1.0237 0 1.4142-.3905.3905-1.0237.3905-1.4142 0L13 3.4142z"/></svg>
